context/brand-context/default/img/icons/table.svg

<svg id="i-table" viewBox="0 0 18 18" xmlns="http://www.w3.org/2000/svg"><path d="m16.0049107 2c1.1018574 0 1.9950893.89706013 1.9950893 2.00585866v9.98828264c0 1.1078052-.8926228 2.0058587-1.9950893 2.0058587l-4.0059107-.001.001.001h-1l-.001-.001h-5l.001.001h-1l-.001-.001-3.00391071.001c-1.10185739 0-1.99508929-.8970601-1.99508929-2.0058587v-9.98828264c0-1.10780515.8926228-2.00585866 1.99508929-2.00585866zm-11.0059107 5h-3.999v6.9941413c0 .5572961.44630695 1.0058587.99508929 1.0058587h3.00391071zm6 0h-5v8h5zm5.0059107-4h-4.0059107v3h5.001v1h-5.001v7.999l4.0059107.001c.5487152 0 .9950893-.4488783.9950893-1.0058587v-9.98828264c0-.55729607-.446307-1.00585866-.9950893-1.00585866zm-12.5049107 9c.27614237 0 .5.2238576.5.5s-.22385763.5-.5.5h-1c-.27614237 0-.5-.2238576-.5-.5s.22385763-.5.5-.5zm12 0c.2761424 0 .5.2238576.5.5s-.2238576.5-.5.5h-2c-.2761424 0-.5-.2238576-.5-.5s.2238576-.5.5-.5zm-6 0c.27614237 0 .5.2238576.5.5s-.22385763.5-.5.5h-2c-.27614237 0-.5-.2238576-.5-.5s.22385763-.5.5-.5zm-6-2c.27614237 0 .5.2238576.5.5s-.22385763.5-.5.5h-1c-.27614237 0-.5-.2238576-.5-.5s.22385763-.5.5-.5zm12 0c.2761424 0 .5.2238576.5.5s-.2238576.5-.5.5h-2c-.2761424 0-.5-.2238576-.5-.5s.2238576-.5.5-.5zm-6 0c.27614237 0 .5.2238576.5.5s-.22385763.5-.5.5h-2c-.27614237 0-.5-.2238576-.5-.5s.22385763-.5.5-.5zm-6-2c.27614237 0 .5.22385763.5.5s-.22385763.5-.5.5h-1c-.27614237 0-.5-.22385763-.5-.5s.22385763-.5.5-.5zm12 0c.2761424 0 .5.22385763.5.5s-.2238576.5-.5.5h-2c-.2761424 0-.5-.22385763-.5-.5s.2238576-.5.5-.5zm-6 0c.27614237 0 .5.22385763.5.5s-.22385763.5-.5.5h-2c-.27614237 0-.5-.22385763-.5-.5s.22385763-.5.5-.5zm1.499-5h-5v3h5zm-6 0h-3.00391071c-.54871518 0-.99508929.44887827-.99508929 1.00585866v1.99414134h3.999z" fill="currentColor" fill-rule="evenodd"/></svg>

<svg id="i-table" viewBox="0 0 18 18" xmlns="http://www.w3.org/2000/svg"><path d="M16.005 2A2 2 0 0 1 18 4.006v9.988A2 2 0 0 1 16.005 16l-4.006-.001L12 16h-1l-.001-.001h-5L6 16H5l-.001-.001L1.995 16A2 2 0 0 1 0 13.994V4.006A2 2 0 0 1 1.995 2zM4.999 7H1v6.994A1 1 0 0 0 1.995 15H5zm6 0h-5v8h5zm5.006-4h-4.006v3H17v1h-5.001v7.999l4.006.001A1 1 0 0 0 17 13.994V4.006A1 1 0 0 0 16.005 3zM3.5 12a.5.5 0 1 1 0 1h-1a.5.5 0 1 1 0-1zm12 0a.5.5 0 1 1 0 1h-2a.5.5 0 1 1 0-1zm-6 0a.5.5 0 1 1 0 1h-2a.5.5 0 1 1 0-1zm-6-2a.5.5 0 1 1 0 1h-1a.5.5 0 1 1 0-1zm12 0a.5.5 0 1 1 0 1h-2a.5.5 0 1 1 0-1zm-6 0a.5.5 0 1 1 0 1h-2a.5.5 0 1 1 0-1zm-6-2a.5.5 0 0 1 0 1h-1a.5.5 0 0 1 0-1zm12 0a.5.5 0 1 1 0 1h-2a.5.5 0 1 1 0-1zm-6 0a.5.5 0 0 1 0 1h-2a.5.5 0 0 1 0-1zm1.499-5h-5v3h5zm-6 0H1.995A1 1 0 0 0 1 4.006V6h3.999z" fill="currentColor" fill-rule="evenodd"/></svg>
